X: 22395
T: Lad O'Beirne's Favourite
R: reel
M: 4/4
K: Dmajor
dc|:d2FF BFAF|dFF/F/F E2g/f/e|dFF/F/F BFA2|BcBA BGA/B/c:|
d2fd cgec|defd f<aaf|dffd cgec|BcBA B2A/B/c|
d2fd cgec|d2fd f<aa2|bBaB gBfd|BcBA BGA/B/c||

